app/icons/pen-only.svg

<svg xmlns="http://www.w3.org/2000/svg" xmlns:xlink="http://www.w3.org/1999/xlink" width="24" height="24" viewBox="0 0 24 24">
    <defs>
        <path id="pen-a" d="M12.1 7.5l4.4 4.4-7.8 7.8c-.2.2-.4.3-.7.3H5c-.6 0-1-.4-1-1v-3c0-.3.1-.5.3-.7l7.8-7.8zm7.6-.2c.4.4.4 1 0 1.4l-1.8 1.8-4.4-4.4 1.8-1.8c.4-.4 1-.4 1.4 0l3 3z"/>
    </defs>
    <g fill="none" fill-rule="evenodd">
        <mask id="pen-b" fill="#fff">
            <use xlink:href="#pen-a"/>
        </mask>
        <g fill="currentColor" mask="url(#pen-b)">
            <rect width="24" height="24" rx="5"/>
        </g>
    </g>
</svg>

<?xml version="1.0" encoding="UTF-8"?>
<svg width="24px" height="24px" viewBox="0 0 24 24" version="1.1" xmlns="http://www.w3.org/2000/svg" xmlns:xlink="http://www.w3.org/1999/xlink">
    <!-- Generator: sketchtool 51.3 (57544) - http://www.bohemiancoding.com/sketch -->
    <title>2AC24B92-E380-4A24-A7FB-E0AC4B6F468D</title>
    <desc>Created with sketchtool.</desc>
    <defs>
        <path d="M12.1,7.5 L16.5,11.9 L8.7,19.7 C8.5,19.9 8.3,20 8,20 L5,20 C4.4,20 4,19.6 4,19 L4,16 C4,15.7 4.1,15.5 4.3,15.3 L12.1,7.5 Z M19.7,7.3 C20.1,7.7 20.1,8.3 19.7,8.7 L17.9,10.5 L13.5,6.1 L15.3,4.3 C15.7,3.9 16.3,3.9 16.7,4.3 L19.7,7.3 Z" id="edit-path-1"></path>
    </defs>
    <g id="Symbols" stroke="none" stroke-width="1" fill="none" fill-rule="evenodd">
        <g id="Icon/Edit">
            <mask id="edit-mask-2" fill="white">
                <use xlink:href="#edit-path-1"></use>
            </mask>
            <g id="Mask" fill-rule="nonzero"></g>
            <g id="Mixin/Fill/Black" mask="url(#edit-mask-2)" fill="currentColor">
                <rect id="Rectangle" x="0" y="0" width="24" height="24" rx="5"></rect>
            </g>
        </g>
    </g>
</svg>
